X: 36
%
T: Birk Hall
C:Pipe tune
O:Scotland
B:Keith Norman MacDonald : "The Skye collection of the best reels & strathspeys extant" : 1887
Z:Ralph Palmer
R:Strathspey
M:C
L:1/8
K:A
a | c2 u(Ae) A<AeA | c2 (Ae) dB=Ga | c2 (Ae) A<AeA | B=GdB AAA :| B | A<AeA a2 ef |
=g2 ed B=GGe | [1 A<AeA a2 ef | =g2 dB AAA :| [2 A<AeA c2 (Ae) | =g2 (dB) AA A2 |]
W:From Ross's Collection


